X: 10288
T: Dogs On Rope
R: reel
M: 4/4
K: Aminor
gecA ~B3c|~B3c BAGA|EAcA ~B3c|BAGA Bcde|
gecA ~B3c|~B3c BAGA|EAcA ~B3c|[M:3/2] BAGA Bcde d2 ab|
[M:3/2] c'eee c'e beee be|[M:4/4] aeee d2ab|c'eee c'beb|aaae d2ab|
[M:3/2] c'eee c'e beee be|[M:4/4] aeee deab|[M:3/2] c'eee c'beb a4||

